svgs/sharp-light/screencast.svg

<svg xmlns="http://www.w3.org/2000/svg" viewBox="0 0 576 512"><!--! Font Awesome Pro 6.6.0 by @fontawesome - https://fontawesome.com License - https://fontawesome.com/license (Commercial License) Copyright 2024 Fonticons, Inc. --><path d="M544 64L32 64l0 129.8C21.5 192.6 10.8 192 0 192L0 64 0 32l32 0 512 0 32 0 0 32 0 384 0 32-32 0-256 0c0-10.8-.6-21.5-1.8-32L544 448l0-384zM0 256l0-32c141.4 0 256 114.6 256 256l-32 0C224 356.3 123.7 256 0 256zM32 416a32 32 0 1 1 0 64 32 32 0 1 1 0-64zm96 64c0-70.7-57.3-128-128-128l0-32c88.4 0 160 71.6 160 160l-32 0z"/></svg>

<svg xmlns="http://www.w3.org/2000/svg" viewBox="0 0 576 512"><!--! Font Awesome Pro 6.4.0 by @fontawesome - https://fontawesome.com License - https://fontawesome.com/license (Commercial License) Copyright 2023 Fonticons, Inc. --><path d="M544 64H32V193.8C21.5 192.6 10.8 192 0 192V64 32H32 544h32V64 448v32H544 288c0-10.8-.6-21.5-1.8-32H544V64zM0 256V224c141.4 0 256 114.6 256 256H224C224 356.3 123.7 256 0 256zM32 416a32 32 0 1 1 0 64 32 32 0 1 1 0-64zm96 64c0-70.7-57.3-128-128-128V320c88.4 0 160 71.6 160 160H128z"/></svg>
